X: 1
T: Fanny Power
R: jig
M: 6/8
L: 1/8
K: Gmaj
|:D|"G"G2D "Em"G>AB|"C"c2B "D"A2G|"C"F>GE "D"D>ED|"Bm"F2G "D"A>Bc|
"G"B>AG "Em"B>cd|"C"e2A "D"A2G|"C"F>GE "D"D>GF|"G" G3 G2 :|
|: d|"G"dB/2c/2d dB/2c/2d|"Em"G>AG GBd|"C"ec/2d/2e ec/2d/2e|"D"A>BA ABc|
"G"B>cd "C"e>fg|"D"f>ga d2c|"G"B>AG "D"A/2B/2cF|"G"G3 G2:|


Tune 957	Setting 23670

